public/icons/typescript-icon.svg

<svg width="129" height="128" viewBox="0 0 129 128" fill="none" xmlns="http://www.w3.org/2000/svg">
<g clip-path="url(#clip0_67_14)">
<path d="M98.333 0H30.333C13.7645 0 0.333008 13.4315 0.333008 30V98C0.333008 114.569 13.7645 128 30.333 128H98.333C114.902 128 128.333 114.569 128.333 98V30C128.333 13.4315 114.902 0 98.333 0Z" fill="#007ACC"/>
<path d="M28.6386 64.4245L28.5981 69.6665H45.2581V117.006H57.0426V69.6665H73.7026V64.526C73.7026 61.6815 73.6421 59.3045 73.5606 59.2435C73.4996 59.1625 63.3611 59.1215 51.0691 59.142L28.6996 59.203L28.6386 64.4245ZM103.617 59.054C106.867 59.867 109.346 61.3095 111.622 63.666C112.8 64.926 114.547 67.222 114.69 67.7705C114.73 67.933 109.163 71.6715 105.791 73.764C105.669 73.8455 105.181 73.317 104.632 72.5045C102.987 70.107 101.26 69.0705 98.6181 68.888C94.7376 68.6235 92.2386 70.6555 92.2591 74.0485C92.2591 75.044 92.4011 75.633 92.8076 76.446C93.6606 78.2135 95.2457 79.27 100.224 81.4235C109.387 85.3655 113.308 87.966 115.746 91.6635C118.469 95.788 119.078 102.371 117.229 107.268C115.198 112.591 110.159 116.207 103.068 117.406C100.874 117.792 95.6721 117.731 93.3156 117.305C88.1751 116.39 83.2991 113.851 80.2921 110.519C79.1136 109.218 76.8176 105.825 76.9601 105.581C77.0206 105.5 77.5491 105.175 78.1381 104.83C78.7071 104.505 80.8611 103.265 82.8926 102.087L86.5701 99.953L87.3421 101.091C88.4191 102.737 90.7756 104.992 92.1981 105.744C96.2816 107.898 101.89 107.593 104.653 105.114C105.831 104.037 106.319 102.92 106.319 101.274C106.319 99.7905 106.136 99.1405 105.364 98.023C104.368 96.601 102.337 95.402 96.5661 92.903C89.9631 90.0585 87.1186 88.291 84.5181 85.487C83.0146 83.862 81.5921 81.261 81.0031 79.087C80.5156 77.279 80.3936 72.748 80.7796 70.9195C82.1406 64.54 86.9561 60.0905 93.9046 58.7695C96.1601 58.343 101.402 58.5055 103.617 59.054Z" fill="white"/>
</g>
<defs>
<clipPath id="clip0_67_14">
<rect width="128" height="128" fill="white" transform="translate(0.333008)"/>
</clipPath>
</defs>
</svg>

<svg xmlns="http://www.w3.org/2000/svg" width="129" height="128" fill="none"><g clip-path="url(#a)"><path fill="#007ACC" d="M98.333 0h-68c-16.569 0-30 13.431-30 30v68c0 16.569 13.431 30 30 30h68c16.569 0 30-13.431 30-30V30c0-16.569-13.431-30-30-30Z"/><path fill="#fff" d="m28.639 64.424-.04 5.242h16.66v47.34h11.784v-47.34h16.66v-5.14c0-2.844-.06-5.221-.142-5.282-.061-.081-10.2-.123-22.492-.102l-22.37.061-.06 5.221Zm74.978-5.37c3.25.813 5.729 2.255 8.005 4.612 1.178 1.26 2.925 3.556 3.068 4.105.04.162-5.527 3.9-8.899 5.993-.122.082-.61-.447-1.159-1.26-1.645-2.397-3.372-3.434-6.014-3.616-3.88-.264-6.38 1.767-6.359 5.16 0 .996.142 1.585.549 2.398.853 1.767 2.438 2.824 7.416 4.978 9.163 3.941 13.084 6.542 15.522 10.24 2.723 4.124 3.332 10.707 1.483 15.604-2.031 5.323-7.07 8.939-14.161 10.138-2.194.386-7.396.325-9.752-.101-5.14-.915-10.017-3.454-13.024-6.786-1.178-1.301-3.474-4.694-3.332-4.938.06-.081.59-.406 1.178-.751.57-.325 2.723-1.565 4.755-2.743l3.677-2.134.772 1.138c1.077 1.646 3.434 3.901 4.856 4.653 4.084 2.154 9.692 1.849 12.455-.63 1.178-1.077 1.666-2.194 1.666-3.84 0-1.484-.183-2.133-.955-3.251-.996-1.422-3.027-2.621-8.798-5.12-6.603-2.845-9.447-4.612-12.048-7.416-1.503-1.625-2.926-4.226-3.515-6.4-.487-1.808-.61-6.339-.223-8.168 1.36-6.379 6.176-10.828 13.125-12.15 2.255-.426 7.497-.264 9.712.285Z"/></g><defs><clipPath id="a"><path fill="#fff" d="M.333 0h128v128h-128z"/></clipPath></defs></svg>
